src/topics/icons/testlodge.svg

<svg height="219" preserveAspectRatio="xMidYMid" viewBox="0 0 256 219" width="256" xmlns="http://www.w3.org/2000/svg"><path d="m256 7.569-113.115 52.883 3.073 1.243 107.024 14.285 3.018-.513z" fill="#c5cf21"/><path d="m256 75.467-113.115-15.015 1.891 2.78 55.969 42.391 2.612.297z" fill="#70b540"/><path d="m203.357 105.92-60.472-45.468.44 4.024 42.495 129.038 2.95 2.312z" fill="#006d69"/><path d="m188.77 195.826-60.773 22.952 14.888-158.326z" fill="#008ca9"/><path d="m127.982 38.006.311-.596.07-22.053-.381-.489-90.772-14.868 1.582 1.402 85.818 35.563z" fill="#70b540"/><path d="m0 7.569 113.115 52.883-3.073 1.243-107.024 14.285-3.018-.513z" fill="#008ca9"/><path d="m127.982 38.006v-23.138l90.808-14.868-1.582 1.402-85.818 35.563z" fill="#006d69"/><path d="m127.854 38.006-90.644-38.006-37.21 7.569z" fill="#c5cf21"/><path d="m0 75.467 113.115-15.015-1.891 2.78-55.969 42.391-2.612.297z" fill="#006d69"/><path d="m52.643 105.92 60.472-45.468-.44 4.024-42.495 129.038-2.951 2.312z" fill="#c5cf21"/><path d="m67.229 195.826 60.768 22.952-14.882-158.326z" fill="#70b540"/><path d="m128.146 38.006 90.644-38.006 37.21 7.569z" fill="#008ca9"/></svg>

<?xml version="1.0" encoding="UTF-8" standalone="no"?>
<svg width="256px" height="219px" viewBox="0 0 256 219" version="1.1" xmlns="http://www.w3.org/2000/svg" xmlns:xlink="http://www.w3.org/1999/xlink" preserveAspectRatio="xMidYMid">
	<g>
		<path d="M256,7.569 L142.885,60.452 L145.958,61.695 L252.982,75.98 L256,75.467 L256,7.569" fill="#C5CF21"></path>
		<path d="M256,75.467 L142.885,60.452 L144.776,63.232 L200.745,105.623 L203.357,105.92 L256,75.467" fill="#70B540"></path>
		<path d="M203.357,105.92 L142.885,60.452 L143.325,64.476 L185.82,193.514 L188.77,195.826 L203.357,105.92" fill="#006D69"></path>
		<path d="M188.77,195.826 L127.997,218.778 L142.885,60.452 L188.77,195.826" fill="#008CA9"></path>
		<path d="M127.982,38.006 L128.293,37.41 L128.363,15.357 L127.982,14.868 L37.21,0 L38.792,1.402 L124.61,36.965 L127.982,38.006" fill="#70B540"></path>
		<path d="M0,7.569 L113.115,60.452 L110.042,61.695 L3.018,75.98 L0,75.467 L0,7.569" fill="#008CA9"></path>
		<path d="M127.982,38.006 L127.982,14.868 L218.79,0 L217.208,1.402 L131.39,36.965 L127.982,38.006" fill="#006D69"></path>
		<path d="M127.854,38.006 L37.21,0 L0,7.569 L127.854,38.006" fill="#C5CF21"></path>
		<path d="M0,75.467 L113.115,60.452 L111.224,63.232 L55.255,105.623 L52.643,105.92 L0,75.467" fill="#006D69"></path>
		<path d="M52.643,105.92 L113.115,60.452 L112.675,64.476 L70.18,193.514 L67.229,195.826 L52.643,105.92" fill="#C5CF21"></path>
		<path d="M67.229,195.826 L127.997,218.778 L113.115,60.452 L67.229,195.826" fill="#70B540"></path>
		<path d="M128.146,38.006 L218.79,0 L256,7.569 L128.146,38.006" fill="#008CA9"></path>
	</g>
</svg>
